X:1
T:Title
%%score { ( 1 4 ) | ( 2 3 5 ) }
L:1/8
M:4/4
K:Eb
V:1 treble nm="Grand Piano"
V:4 treble 
V:2 bass 
V:3 bass 
V:5 bass 
V:1
 z4 z2[Q:1/4=100] [EG]>[FA] | [GB]2 [Ge]2 [Bd]2 [Ac]2 | [GB]>[Ac] [GB]>[FA] G2 G>G | %3
 [DF]2 [Ac]2 [GB]2 [FA]2 |[M:3/4] [EG]6 |[M:1/4] [EG]>[FA] |[M:4/4] [GB]2 [_Ge]2 [Bd]2 .[CAc]2 | %7
 [EGB]>[EAc] [EGB]>[B,FA] [B,EG]2 [B,EG]>[C_G=A] | [DGB]2 [B,DG]2 [C_G=A]2 [Gd]2 | %9
[M:7/8] G- G3 B3 |[M:1/4] (3B,CD |[M:4/4] z2 [EG]2 z4 | [B,EG]6 (3z CD | z2 [EG]2 z4 | %14
[M:3/4] [B,DA]6 |[M:1/4] z2 |[M:4/4] [B,DA]2 [EAB]2 [DA=B]2 [FAd]>[FAd] | %17
 [GBe]2 [B,EG]2 [EGB]2 [B,_DG]>[B,DG] | [B,DF]2 [B,_G]2 [B,=E=G]2 [C_E=A]2 | %19
[M:3/4] [DFB]6[K:bass] |[M:1/4] (3B,CD |[M:4/4] z2[K:treble] [EG]2 z4 | [B,EG]6 (3z CD | %23
 z2 [EG]2 z4 |[M:3/4] [CEc]6 |[M:1/4] c>d |[M:4/4] e6 z2 | e6 z2 | B2 =A2 _A2 [DF]2 | %29
[M:3/4] [B,E]6 |] %30
V:2
 z4 z2 [E,B,]>[E,B,] | [E,E]2 [E,B,]2 [E,C]2 [E,D]2 | %2
 [E,E]>[E,E] [E,E]>[E,B,] [E,B,E]2 [E,B,E]>[E,B,E] | [B,,B,]2 [B,,B,]2 [C,B,]2 [D,B,]2 | %4
[M:3/4] [E,B,]6 |[M:1/4] [E,B,]>[E,B,] |[M:4/4] [E,E]2 [E,B,]2 A,B, z D | E,>E, E,>E, E,2 E,>E, | %8
 D,2 D,2 D,2 [D,C]2 |[M:7/8] D- D3- [F,A,D]3 |[M:1/4] (3z =A,_A, | %11
[M:4/4] E,,2 [B,,,B,,]2 [E,,E,]2 [B,,,B,,]2 | [E,,E,]>E, D,>C, B,,2 (3B,=A,_A, | %13
 E,,2 [B,,,B,,]2 [E,,E,]2 [G,,G,]2 |[M:3/4] [F,,F,]>F, D,>C, B,,2 |[M:1/4][K:treble] F>G | %16
[M:4/4][K:bass] [F,,F,]2 [B,,,B,,]2 [F,,F,]2 [B,,,B,,]2 | [E,,E,]4 [E,,E,]2 [=E,,=E,]2 | %18
 [F,,F,]2 [D,,D,]2 [C,,C,]2 [F,,F,]2 |[M:3/4] [B,,B,]2 A,,2 G,,2 |[M:1/4] (3z =A,_A, | %21
[M:4/4] E,,2 [B,,,B,,]2 [E,,E,]2 [B,,,B,,]2 | [E,,E,]>E, D,>C, B,,2 (3B,=A,_A, | %23
 E,,2 [B,,,B,,]2 [E,,E,]2 [G,,G,]2 |[M:3/4] [A,,A,]>G,, A,,>B,, A,,2 |[M:1/4] z2 | %26
[M:4/4] z2 [=A,C]2 [A,C]2 z2 | z2 B,2 B,2 [E,B,E][F,B,E] | [G,B,E]2 [_G,CE]2 [F,B,D]2 [B,,A,]2 | %29
[M:3/4] [E,G,]6 |] %30
V:3
 x8 | x8 | x8 | x8 |[M:3/4] x6 |[M:1/4] x2 |[M:4/4] z4 E,2 E,2 | x8 | x8 | %9
[M:7/8] [G,B,]- [G,B,]3 z z2 |[M:1/4] x2 |[M:4/4] x8 | x8 | x8 |[M:3/4] x6 |[M:1/4][K:treble] x2 | %16
[M:4/4][K:bass] x8 | x8 | x8 |[M:3/4] x6 |[M:1/4] F,2 |[M:4/4] x8 | x8 | x8 |[M:3/4] x6 | %25
[M:1/4] x2 |[M:4/4] x8 | x8 | x8 |[M:3/4] x6 |] %30
V:4
 x8 | x8 | x8 | x8 |[M:3/4] x6 |[M:1/4] x2 |[M:4/4] x8 | x8 | x8 |[M:7/8] x7 |[M:1/4] x2 | %11
[M:4/4] [E,G,B,E]2 B>c [EGB]2 [G,B,E]2 | x8 | [E,G,B,E]2 B>c [EGB]2 [B,E]2 |[M:3/4] x6 | %15
[M:1/4] x2 |[M:4/4] x8 | x8 | x8 |[M:3/4] z2[K:bass] A,2 G,2 |[M:1/4] x2 | %21
[M:4/4] [E,G,B,E]2[K:treble] B>c [EGB]2 [G,B,E]2 | x8 | [E,G,B,E]2 B>c [EGB]2 [_DE]2 | %24
[M:3/4] z z/ G,/ A,>B, A,2 |[M:1/4] x2 |[M:4/4] z2 _G2 G2 c>d | z2 G2 G2 GA | x8 |[M:3/4] x6 |] %30
V:5
 x8 | x8 | x8 | x8 |[M:3/4] x6 |[M:1/4] x2 |[M:4/4] x8 | x8 | x8 |[M:7/8] x7 |[M:1/4] x2 | %11
[M:4/4] x8 | x8 | x8 |[M:3/4] x6 |[M:1/4][K:treble] x2 |[M:4/4][K:bass] x8 | x8 | x8 |[M:3/4] x6 | %20
[M:1/4] F,,2 |[M:4/4] x8 | x8 | x8 |[M:3/4] x6 |[M:1/4] x2 |[M:4/4] x8 | x8 | x8 |[M:3/4] x6 |] %30

